src/components/game/cards/illustrations/QC.svg

<svg xmlns="http://www.w3.org/2000/svg" xmlns:xlink="http://www.w3.org/1999/xlink" class="card" height="336" preserveAspectRatio="none" viewBox="-120 -168 240 336" width="240"><symbol id="b" viewBox="-600 -600 1200 1200" preserveAspectRatio="xMinYMid"><path d="M30 150c5 235 55 250 100 350h-260c45-100 95-115 100-350a10 10 0 00-20 0 210 210 0 11-74-201 10 10 0 0014-14 230 230 0 11220 0 10 10 0 0014 14 210 210 0 11-74 201 10 10 0 00-20 0z"/></symbol><symbol id="a" viewBox="-500 -500 1000 1000" preserveAspectRatio="xMinYMid"><path d="M-260 100c300 0 220 360 520 360M-175 0v-285a175 175 0 01350 0v570a175 175 0 01-350 0z" stroke="#000" stroke-width="80" stroke-linecap="square" stroke-miterlimit="1.5" fill="none"/></symbol><rect width="239" height="335" x="-119.5" y="-167.5" rx="12" ry="12" fill="#fff" stroke="#000"/><use xlink:href="#a" height="70" x="-122" y="-156"/><use xlink:href="#b" height="58.558" x="-116.279" y="-81"/><g transform="rotate(180)"><use xlink:href="#a" height="70" x="-122" y="-156"/><use xlink:href="#b" height="58.558" x="-116.279" y="-81"/></g></svg>

<?xml version="1.0" encoding="UTF-8" standalone="no"?>
<svg xmlns="http://www.w3.org/2000/svg" xmlns:xlink="http://www.w3.org/1999/xlink" class="card" face="QC" height="3.5in" preserveAspectRatio="none" viewBox="-120 -168 240 336" width="2.5in"><symbol id="SCQ" viewBox="-600 -600 1200 1200" preserveAspectRatio="xMinYMid"><path d="M30 150C35 385 85 400 130 500L-130 500C-85 400 -35 385 -30 150A10 10 0 0 0 -50 150A210 210 0 1 1 -124 -51A10 10 0 0 0 -110 -65A230 230 0 1 1 110 -65A10 10 0 0 0 124 -51A210 210 0 1 1 50 150A10 10 0 0 0 30 150Z" fill="black"></path></symbol><symbol id="VCQ" viewBox="-500 -500 1000 1000" preserveAspectRatio="xMinYMid"><path d="M-260 100C40 100 -40 460 260 460M-175 0L-175 -285A175 175 0 0 1 175 -285L175 285A175 175 0 0 1 -175 285Z" stroke="black" stroke-width="80" stroke-linecap="square" stroke-miterlimit="1.5" fill="none"></path></symbol><rect width="239" height="335" x="-119.5" y="-167.5" rx="12" ry="12" fill="white" stroke="black"></rect><use xlink:href="#VCQ" height="70" x="-122" y="-156"></use><use xlink:href="#SCQ" height="58.558" x="-116.279" y="-81"></use><g transform="rotate(180)"><use xlink:href="#VCQ" height="70" x="-122" y="-156"></use><use xlink:href="#SCQ" height="58.558" x="-116.279" y="-81"></use></g></svg>
